X: 40317
T: Tom Billy's
R: waltz
M: 3/4
K: Dmajor
D2|:F2F3A|dzd3A|B2d2 (3BcB|A4Af|
e4de|f2faaf|(3efe d2B2|(3ABA D3E|
F2F3A|dzd3A|B2d2 (3BcB|A4Af|
e2d2e2|f2a2af|(3efe B2c2|1 d4 DE:|2 d2defg||
aza2f2|d2f2g2|a2adfg|a4b2|
a4 (3fgf|d2a2d'2|c'4b2|b4ba|
b4g2|e4d2|c4d2|e4f2|(3gag f2g2|
[1 b2a2g2|f2fe (3fga|f4fg:|2 b2a2f2|d6|d4AG||

